X: 1061
T: The Twopenny Jig
R:double jig
N:"collected by O'Reilly"
B:O'Neill's 1061
Z:Transcribed by henrik.norbeck@mailbox.swipnet.se
M:6/8
L:1/8
K:F
GFD B2c|dBG GFD|G2A B2c|dBG G2B|
GFD B2c|dBG AGA|FAc fed|1 cAF FGA:|2 cAF F2c||
dfd cec|BdB {B}AGF|G2A B2c|dBG G2c|
[1 dfd cec|BdB AGA|FAc fed|cAF FAc:|
[2 dBd fed|cdB AGA|FAc fed|cAF FGA||


